public/avatar/item2/13.svg

<svg xmlns:xlink="http://www.w3.org/1999/xlink" height="99.2" width="82.2" xmlns="http://www.w3.org/2000/svg"><use height="11.15" transform="translate(34.1 69.25)" width="7.15" xlink:href="#a"/><defs><g id="a"><path d="M3.55.75q1.4 0 2.2.8.8.85.6 2.2Q6.2 5.8 4.65 7.4L6.2 9.25 4.85 10.4l-1.3-1.8-1.15 1.6-1.65-.95L2.8 7.3Q1.45 5.65 1.15 4q-.2-1.25.65-2.3.75-.95 1.75-.95Z" fill="none" stroke="#940101" stroke-linecap="round" stroke-linejoin="round" stroke-width="1.5"/><path d="M3.75 6.05Q2.65 4.5 2.6 3.55q-.1-1.2 1.3-1.3 1 0 .95 1.45-.05 1.1-1.1 2.35Z" fill="none" stroke="#8a0101" stroke-linecap="round" stroke-linejoin="round" stroke-width="1.5"/><path d="M7.95 26.2Q8 24.75 7 24.75q-1.4.1-1.3 1.3.05.95 1.15 2.5 1.05-1.25 1.1-2.35m-1.3-2.9q1.35-.05 2.15.8.8.85.65 2.15-.2 2.1-1.7 3.65l1.55 1.85-1.35 1.15-1.3-1.75L5.5 32.7l-1.65-.95 2.05-1.9q-1.4-1.7-1.65-3.3-.25-1.3.6-2.3.8-.95 1.8-.95" fill="#f00202" fill-rule="evenodd" transform="translate(-3.1 -22.5)"/><path d="m6.2 27.5 3.1 4.25-.85.75q-.7-.85-1.15-1.95L6.2 27.5m2.85-3.15q.5.55.4 1.05-.45.6-1.3-.35-.85-.95-.1-1.55l1 .85" fill="#ffb8b8" fill-rule="evenodd" transform="translate(-3.1 -22.5)"/><path d="M9 23.75q.55.2.2.8-.35.65-.7.35-.35-.3-.2-.8.15-.5.7-.35m-.9 6.55 1.2 1.45-.65.35-.95-1.8-.6-1.7 1 1.7" fill="#fff" fill-rule="evenodd" transform="translate(-3.1 -22.5)"/><path d="m6.65 31.1-.2.3-1.05-1.2.5-.4.75 1.3" fill="#940000" fill-rule="evenodd" transform="translate(-3.1 -22.5)"/></g></defs></svg>

<?xml version="1.0" encoding="UTF-8" standalone="no"?>
<svg xmlns:xlink="http://www.w3.org/1999/xlink" height="99.2px" width="82.2px" xmlns="http://www.w3.org/2000/svg">
  <g transform="matrix(1.0, 0.0, 0.0, 1.0, 31.0, 46.75)">
    <use height="11.15" transform="matrix(1.0, 0.0, 0.0, 1.0, 3.1, 22.5)" width="7.15" xlink:href="#shape0"/>
  </g>
  <defs>
    <g id="shape0" transform="matrix(1.0, 0.0, 0.0, 1.0, -3.1, -22.5)">
      <path d="M6.65 23.25 Q8.05 23.25 8.85 24.05 9.65 24.9 9.45 26.25 9.3 28.3 7.75 29.9 L9.3 31.75 7.95 32.9 6.65 31.1 5.5 32.7 3.85 31.75 5.9 29.8 Q4.55 28.15 4.25 26.5 4.05 25.25 4.9 24.2 5.65 23.25 6.65 23.25 Z" fill="none" stroke="#940101" stroke-linecap="round" stroke-linejoin="round" stroke-width="1.5"/>
      <path d="M6.85 28.55 Q5.75 27.0 5.7 26.05 5.6 24.85 7.0 24.75 8.0 24.75 7.95 26.2 7.9 27.3 6.85 28.55 Z" fill="none" stroke="#8a0101" stroke-linecap="round" stroke-linejoin="round" stroke-width="1.5"/>
      <path d="M7.95 26.2 Q8.0 24.75 7.0 24.75 5.6 24.85 5.7 26.05 5.75 27.0 6.85 28.55 7.9 27.3 7.95 26.2 M6.65 23.3 Q8.0 23.25 8.8 24.1 9.6 24.95 9.45 26.25 9.25 28.35 7.75 29.9 L9.3 31.75 7.95 32.9 6.65 31.15 5.5 32.7 3.85 31.75 5.9 29.85 Q4.5 28.15 4.25 26.55 4.0 25.25 4.85 24.25 5.65 23.3 6.65 23.3" fill="#f00202" fill-rule="evenodd" stroke="none"/>
      <path d="M6.2 27.5 L9.3 31.75 8.45 32.5 Q7.75 31.65 7.3 30.55 L6.2 27.5" fill="#ffb8b8" fill-rule="evenodd" stroke="none"/>
      <path d="M9.05 24.35 Q9.55 24.9 9.45 25.4 9.0 26.0 8.15 25.05 7.3 24.1 8.05 23.5 L9.05 24.35" fill="#ffb8b8" fill-rule="evenodd" stroke="none"/>
      <path d="M9.0 23.75 Q9.55 23.95 9.2 24.55 8.85 25.2 8.5 24.9 8.15 24.6 8.3 24.1 8.45 23.6 9.0 23.75" fill="#ffffff" fill-rule="evenodd" stroke="none"/>
      <path d="M8.1 30.3 L9.3 31.75 8.65 32.1 7.7 30.3 7.1 28.6 8.1 30.3" fill="#ffffff" fill-rule="evenodd" stroke="none"/>
      <path d="M6.65 31.1 L6.45 31.4 5.4 30.2 5.9 29.8 6.65 31.1" fill="#940000" fill-rule="evenodd" stroke="none"/>
    </g>
  </defs>
</svg>
